icons/tree/tree-dead.svg

<svg width="14" height="14" viewBox="0 0 14 14" fill="none" xmlns="http://www.w3.org/2000/svg">
<path d="M3.64648 2.64645C3.84171 2.45129 4.15826 2.45132 4.35351 2.64645L5.58007 3.87302C5.99223 3.59856 6.32942 3.22283 6.55273 2.77634C6.67625 2.52949 6.97671 2.42932 7.22363 2.5527C7.47055 2.6762 7.57066 2.97665 7.44726 3.2236C7.16603 3.78591 6.75197 4.2668 6.24609 4.62985C6.43336 4.91501 6.57272 5.23062 6.65624 5.56442L6.80663 6.16794C7.0779 5.631 7.51678 5.18261 8.07519 4.90329C8.43323 4.72424 8.72428 4.43322 8.90331 4.07516L9.55273 2.77634C9.67627 2.52946 9.97669 2.42924 10.2236 2.5527C10.4706 2.67617 10.5706 2.97664 10.4473 3.2236L9.79784 4.52243C9.52205 5.07402 9.07403 5.522 8.52245 5.79782C8.01677 6.05082 7.66131 6.51694 7.54296 7.05563C8.30827 6.35175 9.4296 6.09918 10.457 6.4863L10.5947 6.54196L10.6826 6.59177C10.8728 6.72565 10.9492 6.97871 10.8525 7.20016C10.742 7.45316 10.4473 7.5685 10.1943 7.45798C9.24947 7.04532 8.15004 7.49367 7.76269 8.44919L7.49999 9.09763V11.5C7.49978 11.7758 7.27579 11.9997 6.99999 12C6.72395 11.9999 6.5001 11.776 6.49999 11.5V9.1904L5.75488 8.3486C4.97702 7.47116 3.97281 6.82381 2.85253 6.47751C2.58875 6.39598 2.441 6.1163 2.52245 5.85251C2.60405 5.58883 2.88372 5.44099 3.14745 5.52243C4.22889 5.8567 5.21605 6.43425 6.03613 7.20602L5.68652 5.80759C5.59625 5.44667 5.40958 5.11653 5.14648 4.85349L3.64648 3.35349C3.45133 3.15821 3.45126 2.84167 3.64648 2.64645Z" fill="red"/>
</svg>

<svg xmlns="http://www.w3.org/2000/svg" width="14" height="14" fill="none" viewBox="0 0 14 14"><path fill="red" d="M3.646 2.646a.5.5 0 0 1 .708 0L5.58 3.873c.412-.274.75-.65.973-1.097a.5.5 0 0 1 .894.448 3.85 3.85 0 0 1-1.2 1.406c.186.285.326.6.41.934l.15.604c.27-.537.71-.985 1.268-1.265.358-.179.65-.47.828-.828l.65-1.299a.5.5 0 0 1 .894.448l-.65 1.298c-.275.552-.723 1-1.275 1.276a1.85 1.85 0 0 0-.979 1.258 2.83 2.83 0 0 1 2.914-.57l.138.056.088.05a.5.5 0 0 1-.489.866 1.833 1.833 0 0 0-2.431.991l-.263.649V11.5a.5.5 0 0 1-1 0V9.19l-.745-.841a6.4 6.4 0 0 0-2.902-1.871.5.5 0 1 1 .294-.956 7.4 7.4 0 0 1 2.89 1.684l-.35-1.398a2.05 2.05 0 0 0-.54-.955l-1.5-1.5a.5.5 0 0 1 0-.707"/></svg>
